X: 4112
M: C|
L: 1/8
K: G
uD |:\
(DG)GG (GA)Bd | egdB BAAB ::\
(dg)de dgd2 |
(gd)BB ABd2 |\
[1 (gd)ed (ef)ge | (dB)B2 (AB)d2 :|\
[2 c2cA B2Bd | (eg)dB (dg)d |]


